portal/assets/img/component/badge/spacing-badge-1.svg

<svg width="220" height="36" viewBox="0 0 220 36" fill="none" xmlns="http://www.w3.org/2000/svg">
<path d="M47 4C47 1.79086 48.7909 0 51 0H165C167.209 0 169 1.79086 169 4V20C169 22.2091 167.209 24 165 24H51C48.7909 24 47 22.2091 47 20V4Z" fill="#491DB6"/>
<path d="M63.1485 17.138C63.09 17.471 63.4185 17.7313 63.708 17.5828L67.0005 15.8908L70.2922 17.5828C70.5817 17.7313 70.9102 17.471 70.8517 17.1388L70.2292 13.5913L72.8707 11.0743C73.1182 10.8388 72.9907 10.4083 72.6592 10.3618L68.9857 9.83977L67.3477 6.59452C67.3165 6.52874 67.2673 6.47316 67.2058 6.43424C67.1442 6.39532 67.0729 6.37466 67.0001 6.37466C66.9273 6.37466 66.856 6.39532 66.7945 6.43424C66.7329 6.47316 66.6837 6.52874 66.6525 6.59452L65.0145 9.84052L61.341 10.3625C61.0102 10.409 60.882 10.8395 61.1287 11.075L63.771 13.592L63.1485 17.1395V17.138ZM66.8272 15.0628L64.0627 16.4833L64.5832 13.5155C64.5954 13.4472 64.5907 13.3769 64.5693 13.3109C64.548 13.2449 64.5108 13.1851 64.461 13.1368L62.2815 11.0593L65.3205 10.6273C65.3834 10.6178 65.4431 10.5932 65.4944 10.5555C65.5458 10.5179 65.5872 10.4684 65.6152 10.4113L66.999 7.66777L68.3842 10.4113C68.4123 10.4684 68.4537 10.5179 68.505 10.5555C68.5564 10.5932 68.6161 10.6178 68.679 10.6273L71.718 11.0585L69.5385 13.136C69.4885 13.1844 69.4513 13.2443 69.4299 13.3105C69.4086 13.3767 69.4039 13.4471 69.4162 13.5155L69.9367 16.4833L67.1722 15.0628C67.1188 15.0352 67.0595 15.0208 66.9994 15.0208C66.9392 15.0208 66.8799 15.0352 66.8265 15.0628H66.8272Z" fill="white"/>
<path d="M81.8849 17V6.81818H85.902C86.6742 6.81818 87.3321 6.96567 87.8757 7.26065C88.4193 7.55232 88.8336 7.95833 89.1186 8.47869C89.407 8.99574 89.5511 9.59233 89.5511 10.2685C89.5511 10.9446 89.4053 11.5412 89.1136 12.0582C88.822 12.5753 88.3994 12.978 87.8459 13.2663C87.2957 13.5547 86.6295 13.6989 85.8473 13.6989H83.2869V11.9737H85.4993C85.9136 11.9737 86.255 11.9025 86.5234 11.7599C86.7952 11.6141 86.9974 11.4136 87.13 11.1584C87.2659 10.8999 87.3338 10.6032 87.3338 10.2685C87.3338 9.9304 87.2659 9.63542 87.13 9.38352C86.9974 9.12831 86.7952 8.93111 86.5234 8.7919C86.2517 8.64938 85.907 8.57812 85.4893 8.57812H84.0376V17H81.8849ZM90.9096 17V9.36364H92.9629V10.696H93.0424C93.1816 10.2221 93.4153 9.86411 93.7434 9.62216C94.0716 9.37689 94.4494 9.25426 94.877 9.25426C94.983 9.25426 95.0974 9.26089 95.22 9.27415C95.3426 9.28741 95.4503 9.30563 95.5431 9.32883V11.2081C95.4437 11.1783 95.3062 11.1518 95.1305 11.1286C94.9548 11.1054 94.7941 11.0938 94.6483 11.0938C94.3367 11.0938 94.0583 11.1617 93.813 11.2976C93.5711 11.4302 93.3788 11.6158 93.2363 11.8544C93.0971 12.093 93.0275 12.3681 93.0275 12.6797V17H90.9096ZM96.6381 17V9.36364H98.756V17H96.6381ZM97.7021 8.37926C97.3872 8.37926 97.1171 8.27486 96.8917 8.06605C96.6696 7.85393 96.5586 7.60038 96.5586 7.3054C96.5586 7.01373 96.6696 6.76349 96.8917 6.55469C97.1171 6.34257 97.3872 6.23651 97.7021 6.23651C98.0169 6.23651 98.2854 6.34257 98.5075 6.55469C98.7328 6.76349 98.8455 7.01373 98.8455 7.3054C98.8455 7.60038 98.7328 7.85393 98.5075 8.06605C98.2854 8.27486 98.0169 8.37926 97.7021 8.37926ZM100.453 17V9.36364H102.471V10.7109H102.561C102.72 10.2635 102.985 9.91051 103.356 9.65199C103.727 9.39347 104.171 9.2642 104.688 9.2642C105.212 9.2642 105.658 9.39512 106.026 9.65696C106.394 9.91548 106.639 10.2668 106.762 10.7109H106.841C106.997 10.2734 107.279 9.92377 107.686 9.66193C108.097 9.39678 108.583 9.2642 109.143 9.2642C109.856 9.2642 110.434 9.49124 110.878 9.94531C111.325 10.3961 111.549 11.0357 111.549 11.8643V17H109.436V12.282C109.436 11.8577 109.324 11.5395 109.098 11.3274C108.873 11.1153 108.591 11.0092 108.253 11.0092C107.869 11.0092 107.569 11.1319 107.353 11.3771C107.138 11.6191 107.03 11.9389 107.03 12.3366V17H104.977V12.2372C104.977 11.8627 104.869 11.5644 104.654 11.3423C104.441 11.1203 104.161 11.0092 103.813 11.0092C103.578 11.0092 103.366 11.0689 103.177 11.1882C102.991 11.3042 102.844 11.4683 102.735 11.6804C102.625 11.8892 102.57 12.1345 102.57 12.4162V17H100.453ZM115.4 17.1442C114.912 17.1442 114.478 17.0597 114.097 16.8906C113.716 16.7183 113.414 16.4647 113.192 16.13C112.974 15.7919 112.864 15.371 112.864 14.8672C112.864 14.4429 112.942 14.0866 113.098 13.7983C113.254 13.5099 113.466 13.2779 113.734 13.1023C114.003 12.9266 114.308 12.794 114.649 12.7045C114.994 12.6151 115.355 12.5521 115.733 12.5156C116.177 12.4692 116.535 12.4261 116.807 12.3864C117.078 12.3433 117.276 12.2803 117.398 12.1974C117.521 12.1146 117.582 11.992 117.582 11.8295V11.7997C117.582 11.4848 117.483 11.2412 117.284 11.0689C117.088 10.8965 116.81 10.8104 116.449 10.8104C116.068 10.8104 115.764 10.8949 115.539 11.0639C115.314 11.2296 115.164 11.4384 115.091 11.6903L113.133 11.5312C113.232 11.0672 113.428 10.6662 113.719 10.3281C114.011 9.98674 114.387 9.7249 114.848 9.54261C115.312 9.35701 115.849 9.2642 116.459 9.2642C116.883 9.2642 117.289 9.31392 117.677 9.41335C118.068 9.51278 118.414 9.6669 118.716 9.87571C119.021 10.0845 119.261 10.353 119.437 10.6811C119.612 11.0059 119.7 11.3954 119.7 11.8494V17H117.692V15.9411H117.632C117.509 16.1797 117.345 16.3902 117.14 16.5724C116.934 16.7514 116.687 16.8923 116.399 16.995C116.111 17.0945 115.778 17.1442 115.4 17.1442ZM116.006 15.6825C116.318 15.6825 116.593 15.6212 116.831 15.4986C117.07 15.3726 117.257 15.2036 117.393 14.9915C117.529 14.7794 117.597 14.5391 117.597 14.2706V13.4602C117.531 13.5033 117.44 13.5431 117.324 13.5795C117.211 13.6127 117.083 13.6442 116.941 13.674C116.798 13.7005 116.656 13.7254 116.513 13.7486C116.371 13.7685 116.242 13.7867 116.126 13.8033C115.877 13.8397 115.66 13.8977 115.474 13.9773C115.289 14.0568 115.144 14.1645 115.042 14.3004C114.939 14.433 114.888 14.5987 114.888 14.7976C114.888 15.0859 114.992 15.3063 115.201 15.4588C115.413 15.608 115.681 15.6825 116.006 15.6825ZM121.343 17V9.36364H123.396V10.696H123.476C123.615 10.2221 123.849 9.86411 124.177 9.62216C124.505 9.37689 124.883 9.25426 125.311 9.25426C125.417 9.25426 125.531 9.26089 125.654 9.27415C125.776 9.28741 125.884 9.30563 125.977 9.32883V11.2081C125.877 11.1783 125.74 11.1518 125.564 11.1286C125.388 11.1054 125.228 11.0938 125.082 11.0938C124.77 11.0938 124.492 11.1617 124.247 11.2976C124.005 11.4302 123.812 11.6158 123.67 11.8544C123.531 12.093 123.461 12.3681 123.461 12.6797V17H121.343ZM128.612 19.8636C128.343 19.8636 128.091 19.8421 127.856 19.799C127.624 19.7592 127.432 19.7079 127.279 19.6449L127.757 18.0639C128.005 18.1402 128.229 18.1816 128.428 18.1882C128.63 18.1948 128.804 18.1484 128.95 18.049C129.099 17.9496 129.22 17.7805 129.313 17.5419L129.437 17.2188L126.698 9.36364H128.925L130.506 14.9716H130.585L132.181 9.36364H134.423L131.455 17.8253C131.313 18.2363 131.119 18.5942 130.874 18.8991C130.632 19.2074 130.325 19.4444 129.954 19.6101C129.583 19.7791 129.135 19.8636 128.612 19.8636Z" fill="white"/>
<path d="M149 17.25C147.608 17.25 146.272 16.6969 145.288 15.7123C144.303 14.7277 143.75 13.3924 143.75 12C143.75 10.6076 144.303 9.27226 145.288 8.28769C146.272 7.30312 147.608 6.75 149 6.75C150.392 6.75 151.728 7.30312 152.712 8.28769C153.697 9.27226 154.25 10.6076 154.25 12C154.25 13.3924 153.697 14.7277 152.712 15.7123C151.728 16.6969 150.392 17.25 149 17.25ZM149 18C150.591 18 152.117 17.3679 153.243 16.2426C154.368 15.1174 155 13.5913 155 12C155 10.4087 154.368 8.88258 153.243 7.75736C152.117 6.63214 150.591 6 149 6C147.409 6 145.883 6.63214 144.757 7.75736C143.632 8.88258 143 10.4087 143 12C143 13.5913 143.632 15.1174 144.757 16.2426C145.883 17.3679 147.409 18 149 18Z" fill="white"/>
<path d="M146.484 9.48448C146.519 9.44956 146.561 9.42185 146.606 9.40294C146.652 9.38404 146.701 9.37431 146.75 9.37431C146.799 9.37431 146.848 9.38404 146.894 9.40294C146.939 9.42185 146.981 9.44956 147.015 9.48448L149 11.4697L150.984 9.48448C151.019 9.44961 151.061 9.42196 151.106 9.40309C151.152 9.38422 151.201 9.37451 151.25 9.37451C151.299 9.37451 151.348 9.38422 151.394 9.40309C151.439 9.42196 151.481 9.44961 151.515 9.48448C151.55 9.51935 151.578 9.56074 151.597 9.60629C151.616 9.65185 151.625 9.70067 151.625 9.74998C151.625 9.79929 151.616 9.84811 151.597 9.89367C151.578 9.93922 151.55 9.98061 151.515 10.0155L149.53 12L151.515 13.9845C151.55 14.0193 151.578 14.0607 151.597 14.1063C151.616 14.1518 151.625 14.2007 151.625 14.25C151.625 14.2993 151.616 14.3481 151.597 14.3937C151.578 14.4392 151.55 14.4806 151.515 14.5155C151.481 14.5503 151.439 14.578 151.394 14.5969C151.348 14.6157 151.299 14.6255 151.25 14.6255C151.201 14.6255 151.152 14.6157 151.106 14.5969C151.061 14.578 151.019 14.5503 150.984 14.5155L149 12.5302L147.015 14.5155C146.981 14.5503 146.939 14.578 146.894 14.5969C146.848 14.6157 146.799 14.6255 146.75 14.6255C146.701 14.6255 146.652 14.6157 146.606 14.5969C146.561 14.578 146.519 14.5503 146.484 14.5155C146.45 14.4806 146.422 14.4392 146.403 14.3937C146.384 14.3481 146.375 14.2993 146.375 14.25C146.375 14.2007 146.384 14.1518 146.403 14.1063C146.422 14.0607 146.45 14.0193 146.484 13.9845L148.47 12L146.484 10.0155C146.45 9.98064 146.422 9.93926 146.403 9.8937C146.384 9.84815 146.374 9.7993 146.374 9.74998C146.374 9.70065 146.384 9.65181 146.403 9.60625C146.422 9.56069 146.45 9.51931 146.484 9.48448Z" fill="white"/>
<path d="M51 1H165V-1H51V1ZM168 4V20H170V4H168ZM165 23H51V25H165V23ZM48 20V4H46V20H48ZM51 23C49.3431 23 48 21.6569 48 20H46C46 22.7614 48.2386 25 51 25V23ZM168 20C168 21.6569 166.657 23 165 23V25C167.761 25 170 22.7614 170 20H168ZM165 1C166.657 1 168 2.34315 168 4H170C170 1.23858 167.761 -1 165 -1V1ZM51 -1C48.2386 -1 46 1.23858 46 4H48C48 2.34315 49.3431 1 51 1V-1Z" fill="#491DB6"/>
<path d="M39.5 20V24" stroke="#E8178A"/>
<line x1="36" y1="20.5" x2="43" y2="20.5" stroke="#E8178A"/>
<line x1="36" y1="23.5" x2="43" y2="23.5" stroke="#E8178A"/>
<rect y="13" width="31" height="18" rx="3" fill="#E8178A"/>
<path d="M6.4794 24.7216V23.5107L9.51562 18.7273H10.5597V20.4034H9.94176L8.0277 23.4325V23.4893H12.3423V24.7216H6.4794ZM9.97017 26V24.3523L9.99858 23.8161V18.7273H11.4403V26H9.97017ZM13.381 28.0455V20.5455H14.8725V21.4616H14.94C15.0063 21.3149 15.1022 21.1657 15.2276 21.0142C15.3555 20.8603 15.5212 20.7325 15.7248 20.6307C15.9308 20.5265 16.1864 20.4744 16.4918 20.4744C16.8896 20.4744 17.2565 20.5786 17.5927 20.7869C17.9289 20.9929 18.1976 21.3042 18.3988 21.7209C18.6 22.1352 18.7006 22.6548 18.7006 23.2798C18.7006 23.8883 18.6024 24.402 18.4059 24.821C18.2118 25.2377 17.9466 25.5537 17.6104 25.7692C17.2766 25.9822 16.9026 26.0888 16.4883 26.0888C16.1947 26.0888 15.945 26.0402 15.739 25.9432C15.5354 25.8461 15.3685 25.7242 15.2383 25.5774C15.1081 25.4283 15.0086 25.2779 14.94 25.1264H14.8938V28.0455H13.381ZM14.8619 23.2727C14.8619 23.5971 14.9068 23.88 14.9968 24.1214C15.0868 24.3629 15.217 24.5511 15.3874 24.6861C15.5579 24.8187 15.765 24.8849 16.0089 24.8849C16.2551 24.8849 16.4634 24.8175 16.6339 24.6825C16.8043 24.5452 16.9334 24.3558 17.021 24.1143C17.1109 23.8705 17.1559 23.59 17.1559 23.2727C17.1559 22.9579 17.1121 22.6809 17.0245 22.4418C16.9369 22.2027 16.8079 22.0156 16.6374 21.8807C16.467 21.7457 16.2575 21.6783 16.0089 21.6783C15.7627 21.6783 15.5543 21.7434 15.3839 21.8736C15.2158 22.0038 15.0868 22.1884 14.9968 22.4276C14.9068 22.6667 14.8619 22.9484 14.8619 23.2727ZM20.7781 20.5455L21.7795 22.4524L22.8058 20.5455H24.3576L22.7773 23.2727L24.4002 26H22.8555L21.7795 24.1143L20.7212 26H19.1587L20.7781 23.2727L19.2156 20.5455H20.7781Z" fill="white"/>
<path d="M177 0V24" stroke="#1745E8"/>
<rect x="183" y="3" width="37" height="18" rx="3" fill="#1745E8"/>
<path d="M189.589 16V14.892L192.178 12.495C192.398 12.282 192.583 12.0902 192.732 11.9197C192.884 11.7493 192.999 11.5824 193.077 11.419C193.155 11.2533 193.194 11.0746 193.194 10.8828C193.194 10.6697 193.145 10.4863 193.048 10.3324C192.951 10.1761 192.819 10.0566 192.651 9.97372C192.482 9.88849 192.292 9.84588 192.079 9.84588C191.856 9.84588 191.662 9.89086 191.496 9.98082C191.331 10.0708 191.203 10.1998 191.113 10.3679C191.023 10.536 190.978 10.736 190.978 10.968H189.518C189.518 10.4922 189.626 10.0791 189.842 9.72869C190.057 9.37831 190.359 9.10724 190.747 8.91548C191.135 8.72372 191.583 8.62784 192.089 8.62784C192.61 8.62784 193.064 8.72017 193.45 8.90483C193.838 9.08712 194.14 9.34044 194.355 9.66477C194.571 9.98911 194.678 10.3608 194.678 10.7798C194.678 11.0545 194.624 11.3255 194.515 11.593C194.408 11.8606 194.218 12.1577 193.943 12.4844C193.669 12.8087 193.281 13.1982 192.782 13.6527L191.72 14.6932V14.7429H194.774V16H189.589ZM195.622 14.7216V13.5107L198.658 8.72727H199.702V10.4034H199.084L197.17 13.4325V13.4893H201.485V14.7216H195.622ZM199.113 16V14.3523L199.141 13.8161V8.72727H200.583V16H199.113ZM202.524 18.0455V10.5455H204.015V11.4616H204.083C204.149 11.3149 204.245 11.1657 204.37 11.0142C204.498 10.8603 204.664 10.7325 204.867 10.6307C205.073 10.5265 205.329 10.4744 205.634 10.4744C206.032 10.4744 206.399 10.5786 206.735 10.7869C207.071 10.9929 207.34 11.3042 207.541 11.7209C207.743 12.1352 207.843 12.6548 207.843 13.2798C207.843 13.8883 207.745 14.402 207.548 14.821C207.354 15.2377 207.089 15.5537 206.753 15.7692C206.419 15.9822 206.045 16.0888 205.631 16.0888C205.337 16.0888 205.088 16.0402 204.882 15.9432C204.678 15.8461 204.511 15.7242 204.381 15.5774C204.251 15.4283 204.151 15.2779 204.083 15.1264H204.036V18.0455H202.524ZM204.004 13.2727C204.004 13.5971 204.049 13.88 204.139 14.1214C204.229 14.3629 204.36 14.5511 204.53 14.6861C204.7 14.8187 204.908 14.8849 205.151 14.8849C205.398 14.8849 205.606 14.8175 205.776 14.6825C205.947 14.5452 206.076 14.3558 206.164 14.1143C206.253 13.8705 206.298 13.59 206.298 13.2727C206.298 12.9579 206.255 12.6809 206.167 12.4418C206.079 12.2027 205.95 12.0156 205.78 11.8807C205.61 11.7457 205.4 11.6783 205.151 11.6783C204.905 11.6783 204.697 11.7434 204.526 11.8736C204.358 12.0038 204.229 12.1884 204.139 12.4276C204.049 12.6667 204.004 12.9484 204.004 13.2727ZM209.921 10.5455L210.922 12.4524L211.948 10.5455H213.5L211.92 13.2727L213.543 16H211.998L210.922 14.1143L209.864 16H208.301L209.921 13.2727L208.358 10.5455H209.921Z" fill="white"/>
<line x1="174" y1="0.5" x2="180" y2="0.5" stroke="#1745E8"/>
<line x1="174" y1="23.5" x2="180" y2="23.5" stroke="#1745E8"/>
</svg>

<svg width="220" height="36" viewBox="0 0 220 36" fill="none" xmlns="http://www.w3.org/2000/svg"><path d="M47 4a4 4 0 0 1 4-4h114a4 4 0 0 1 4 4v16a4 4 0 0 1-4 4H51a4 4 0 0 1-4-4V4Z" fill="#491DB6"/><path d="M63.148 17.138c-.058.333.27.593.56.445l3.293-1.692 3.291 1.692c.29.148.618-.112.56-.444l-.623-3.548 2.642-2.517c.247-.235.12-.666-.212-.712l-3.673-.522-1.638-3.245a.385.385 0 0 0-.695 0L65.014 9.84l-3.673.522c-.33.046-.459.476-.212.712l2.642 2.517-.623 3.548v-.002Zm3.68-2.075-2.765 1.42.52-2.968a.423.423 0 0 0-.122-.378l-2.18-2.078 3.04-.432a.393.393 0 0 0 .294-.216L67 7.668l1.385 2.743a.395.395 0 0 0 .295.216l3.039.431-2.18 2.078a.424.424 0 0 0-.122.38l.52 2.967-2.764-1.42a.376.376 0 0 0-.346 0h.001ZM81.885 17V6.818h4.017c.772 0 1.43.148 1.974.443.543.291.958.697 1.243 1.218.288.517.432 1.113.432 1.79 0 .676-.146 1.272-.437 1.79a3.024 3.024 0 0 1-1.268 1.207c-.55.289-1.217.433-1.999.433h-2.56v-1.725h2.212c.415 0 .756-.072 1.024-.214.272-.146.474-.346.607-.602.136-.258.204-.555.204-.89 0-.338-.068-.633-.204-.884a1.361 1.361 0 0 0-.607-.592c-.271-.143-.616-.214-1.034-.214h-1.451V17h-2.153Zm9.025 0V9.364h2.053v1.332h.08c.139-.474.372-.832.7-1.074a1.843 1.843 0 0 1 1.134-.368 3.203 3.203 0 0 1 .666.075v1.88a2.77 2.77 0 0 0-.413-.08 3.707 3.707 0 0 0-.482-.035c-.311 0-.59.068-.835.204a1.501 1.501 0 0 0-.577.556 1.612 1.612 0 0 0-.209.826V17H90.91Zm5.728 0V9.364h2.118V17h-2.118Zm1.064-8.62a1.15 1.15 0 0 1-.81-.314 1.015 1.015 0 0 1-.333-.76.99.99 0 0 1 .333-.751 1.14 1.14 0 0 1 .81-.318c.315 0 .583.106.805.318a.988.988 0 0 1 .338.75c0 .295-.112.549-.338.761-.222.209-.49.313-.805.313Zm2.751 8.62V9.364h2.018v1.347h.09c.159-.447.424-.8.795-1.059.371-.259.815-.388 1.332-.388.524 0 .97.131 1.338.393.368.258.613.61.736 1.054h.079a2.04 2.04 0 0 1 .845-1.05c.411-.264.897-.397 1.457-.397.713 0 1.291.227 1.735.681.447.451.671 1.09.671 1.92V17h-2.113v-4.718c0-.424-.112-.742-.338-.955a1.184 1.184 0 0 0-.845-.318c-.384 0-.684.123-.9.368-.215.242-.323.562-.323.96V17h-2.053v-4.763c0-.374-.108-.673-.323-.895-.213-.222-.493-.333-.841-.333-.235 0-.447.06-.636.18a1.22 1.22 0 0 0-.442.491 1.56 1.56 0 0 0-.165.736V17h-2.117Zm14.947.144a3.18 3.18 0 0 1-1.303-.253 2.098 2.098 0 0 1-.905-.761c-.218-.338-.328-.759-.328-1.263 0-.424.078-.78.234-1.069.156-.288.368-.52.636-.696a3.13 3.13 0 0 1 .915-.398 6.982 6.982 0 0 1 1.084-.188c.444-.047.802-.09 1.074-.13.271-.043.469-.106.591-.189a.414.414 0 0 0 .184-.367v-.03c0-.315-.099-.559-.298-.731-.196-.173-.474-.259-.835-.259-.381 0-.685.085-.91.254a1.17 1.17 0 0 0-.448.626l-1.958-.159c.099-.464.295-.865.586-1.203a2.817 2.817 0 0 1 1.129-.785c.464-.186 1.001-.279 1.611-.279.424 0 .83.05 1.218.15.391.099.737.253 1.039.462.305.209.545.477.721.805.175.325.263.714.263 1.168V17h-2.008v-1.059h-.06c-.123.239-.287.45-.492.631-.206.18-.453.32-.741.423-.288.1-.621.15-.999.15Zm.606-1.461c.312 0 .587-.062.825-.184.239-.126.426-.295.562-.508.136-.212.204-.452.204-.72v-.81a1.123 1.123 0 0 1-.273.118 5.05 5.05 0 0 1-.383.095c-.143.027-.285.051-.428.075l-.387.054a2.62 2.62 0 0 0-.652.174 1.05 1.05 0 0 0-.432.323.786.786 0 0 0-.154.498c0 .288.104.508.313.66.212.15.48.224.805.224ZM121.343 17V9.364h2.053v1.332h.08c.139-.474.373-.832.701-1.074a1.843 1.843 0 0 1 1.134-.368 3.209 3.209 0 0 1 .666.075v1.88c-.1-.03-.237-.057-.413-.08a3.706 3.706 0 0 0-.482-.035c-.312 0-.59.068-.835.204a1.498 1.498 0 0 0-.577.556 1.61 1.61 0 0 0-.209.826V17h-2.118Zm7.269 2.864a4.2 4.2 0 0 1-.756-.065 2.764 2.764 0 0 1-.577-.154l.478-1.581c.248.076.472.118.671.124a.853.853 0 0 0 .522-.139c.149-.1.27-.268.363-.507l.124-.323-2.739-7.855h2.227l1.581 5.608h.079l1.596-5.608h2.242l-2.968 8.461a3.546 3.546 0 0 1-.581 1.074 2.386 2.386 0 0 1-.92.711c-.371.17-.819.254-1.342.254ZM149 17.25a5.249 5.249 0 1 1 0-10.498 5.249 5.249 0 0 1 0 10.498Zm0 .75a6.002 6.002 0 0 0 6-6 6 6 0 1 0-6 6Z" fill="#fff"/><path d="M146.484 9.484a.384.384 0 0 1 .266-.11.38.38 0 0 1 .265.11L149 11.47l1.984-1.986a.384.384 0 0 1 .266-.11.38.38 0 0 1 .265.11.377.377 0 0 1 .082.41.378.378 0 0 1-.082.121L149.53 12l1.985 1.985a.376.376 0 1 1-.531.53L149 12.53l-1.985 1.986a.37.37 0 0 1-.409.08.385.385 0 0 1-.203-.202.373.373 0 0 1 0-.288.39.39 0 0 1 .081-.121L148.47 12l-1.986-1.985a.39.39 0 0 1-.11-.265.374.374 0 0 1 .11-.266Z" fill="#fff"/><path d="M51 1h114v-2H51v2Zm117 3v16h2V4h-2Zm-3 19H51v2h114v-2ZM48 20V4h-2v16h2Zm3 3a3 3 0 0 1-3-3h-2a5 5 0 0 0 5 5v-2Zm117-3a3 3 0 0 1-3 3v2a5 5 0 0 0 5-5h-2Zm-3-19a3 3 0 0 1 3 3h2a5 5 0 0 0-5-5v2ZM51-1a5 5 0 0 0-5 5h2a3 3 0 0 1 3-3v-2Z" fill="#491DB6"/><path d="M39.5 20v4M36 20.5h7m-7 3h7" stroke="#E8178A"/><rect y="13" width="31" height="18" rx="3" fill="#E8178A"/><path d="M6.48 24.722V23.51l3.036-4.784h1.044v1.676h-.618l-1.914 3.03v.056h4.314v1.233H6.48ZM9.97 26v-1.648l.029-.536v-5.089h1.441V26H9.97Zm3.411 2.046v-7.5h1.492v.916h.067c.066-.147.162-.296.288-.448.127-.154.293-.281.497-.383.206-.105.461-.157.767-.157.398 0 .764.105 1.1.313.337.206.606.517.807.934.201.414.302.934.302 1.559 0 .608-.099 1.122-.295 1.541-.194.417-.46.733-.796.948-.333.213-.707.32-1.122.32-.293 0-.543-.049-.749-.146a1.55 1.55 0 0 1-.5-.366 1.9 1.9 0 0 1-.299-.45h-.046v2.919H13.38Zm1.48-4.773c0 .324.046.607.136.848.09.242.22.43.39.565a.98.98 0 0 0 .622.199.975.975 0 0 0 .625-.203c.17-.137.3-.326.387-.568a2.42 2.42 0 0 0 .135-.841 2.41 2.41 0 0 0-.131-.831 1.237 1.237 0 0 0-.388-.561.98.98 0 0 0-.628-.203 1 1 0 0 0-.625.196 1.22 1.22 0 0 0-.387.554c-.09.239-.135.52-.135.845Zm5.917-2.727 1.002 1.906 1.026-1.907h1.552l-1.58 2.728L24.4 26h-1.544l-1.077-1.886L20.721 26H19.16l1.62-2.727-1.563-2.727h1.562Z" fill="#fff"/><path d="M177 0v24" stroke="#1745E8"/><rect x="183" y="3" width="37" height="18" rx="3" fill="#1745E8"/><path d="M189.589 16v-1.108l2.589-2.397c.22-.213.405-.405.554-.575.152-.17.267-.338.345-.501.078-.166.117-.344.117-.536a1.01 1.01 0 0 0-.146-.55.954.954 0 0 0-.397-.36 1.25 1.25 0 0 0-.572-.127c-.223 0-.417.045-.583.135a.933.933 0 0 0-.383.387c-.09.168-.135.368-.135.6h-1.46c0-.476.108-.889.324-1.24.215-.35.517-.62.905-.813.388-.191.836-.287 1.342-.287.521 0 .975.092 1.361.277.388.182.69.435.905.76.216.324.323.696.323 1.115 0 .275-.054.546-.163.813-.107.268-.297.565-.572.891-.274.325-.662.714-1.161 1.169l-1.062 1.04v.05h3.054V16h-5.185Zm6.033-1.278V13.51l3.036-4.784h1.044v1.676h-.618l-1.914 3.03v.056h4.315v1.233h-5.863ZM199.113 16v-1.648l.028-.536V8.727h1.442V16h-1.47Zm3.411 2.046v-7.5h1.491v.916h.068c.066-.147.162-.296.287-.448.128-.154.294-.281.497-.383.206-.104.462-.157.767-.157.398 0 .765.105 1.101.313.336.206.605.517.806.934.202.414.302.934.302 1.559 0 .608-.098 1.122-.295 1.541-.194.417-.459.733-.795.948-.334.213-.708.32-1.122.32-.294 0-.543-.049-.749-.146a1.545 1.545 0 0 1-.501-.366c-.13-.149-.23-.3-.298-.45h-.047v2.918h-1.512Zm1.48-4.773c0 .324.045.607.135.848.09.242.221.43.391.565a.98.98 0 0 0 .621.199.973.973 0 0 0 .625-.203c.171-.137.3-.326.388-.568.089-.244.134-.524.134-.841a2.4 2.4 0 0 0-.131-.831 1.244 1.244 0 0 0-.387-.561.98.98 0 0 0-.629-.203 1 1 0 0 0-.625.196 1.22 1.22 0 0 0-.387.554c-.09.239-.135.52-.135.845Zm5.917-2.727 1.001 1.906 1.026-1.906h1.552l-1.58 2.727L213.543 16h-1.545l-1.076-1.886L209.864 16h-1.563l1.62-2.727-1.563-2.727h1.563Z" fill="#fff"/><path stroke="#1745E8" d="M174 .5h6m-6 23h6"/></svg>
